rospo-icon-theme-classic-common/22x22/apps/appimagekit-auryo.svg

<svg height="22" viewBox="0 0 22 22" width="22" xmlns="http://www.w3.org/2000/svg"><circle cx="11" cy="11.5" opacity=".2" r="10"/><circle cx="11" cy="11" fill="#4f4f4f" r="10"/><path d="m11 1a10 10 0 0 0 -10 10 10 10 0 0 0  .01075.291 10 10 0 0 1 9.98925-9.791 10 10 0 0 1 9.9895 9.709 10 10 0 0 0  .0105-.209 10 10 0 0 0 -10-10z" fill="#fff" opacity=".1"/><path d="m11 5.5c-2.4852815 0-4.5 2.0147185-4.5 4.5v1.566406c-.881993.227729-1.49868 1.022677-1.5 1.933594 0 1.10457.8954305 2 2 2 .351306-.0008.6962095-.09408 1-.270508v.270508h1v-2-2h-1v .270508c-.156621-.090666-.3248225-.159655-.5-.205079v-1.565429c0-1.9329965 1.567004-3.5 3.5-3.5 1.932997 0 3.5 1.5670035 3.5 3.5v1.566406c-.881993.227729-1.49868 1.022677-1.5 1.933594 0 1.10457.895431 2 2 2s2-.89543 2-2c-.0009-.911281-.617656-1.70675-1.5-1.93457v-1.56543c0-2.4852815-2.014719-4.5-4.5-4.5zm-4 7c .5522845 0 1 .447715 1 1s-.4477155 1-1 1-1-.447715-1-1 .4477155-1 1-1zm8 0c .552284 0 1 .447715 1 1s-.447716 1-1 1c-.552285 0-1-.447715-1-1s .447715-1 1-1z" opacity=".2"/><path d="m11 5c-2.4852815 0-4.5 2.0147185-4.5 4.5v1.566406c-.881993.227729-1.49868 1.022677-1.5 1.933594 0 1.10457.8954305 2 2 2 .351306-.0008.6962095-.09408 1-.270508v.270508h1v-2-2h-1v .270508c-.156621-.090666-.3248225-.159655-.5-.205079v-1.565429c0-1.9329965 1.567004-3.5 3.5-3.5 1.932997 0 3.5 1.5670035 3.5 3.5v1.566406c-.881993.227729-1.49868 1.022677-1.5 1.933594 0 1.10457.895431 2 2 2s2-.89543 2-2c-.0009-.911281-.617656-1.70675-1.5-1.93457v-1.56543c0-2.4852815-2.014719-4.5-4.5-4.5zm-4 7c .5522845 0 1 .447715 1 1s-.4477155 1-1 1-1-.447715-1-1 .4477155-1 1-1zm8 0c .552284 0 1 .447715 1 1s-.447716 1-1 1c-.552285 0-1-.447715-1-1s .447715-1 1-1z" fill="#2993e4"/></svg>

<svg xmlns="http://www.w3.org/2000/svg" width="22" height="22" version="1.1" viewBox="0 0 22 22">
 <circle style="opacity:0.2" cx="11" cy="11.5" r="10"/>
 <circle style="fill:#4f4f4f" cx="11" cy="11" r="10"/>
 <path style="opacity:0.1;fill:#ffffff" d="M 11,1 A 10,10 0 0 0 1,11 10,10 0 0 0 1.01075,11.291 10,10 0 0 1 11,1.5 10,10 0 0 1 20.9895,11.209 10,10 0 0 0 21,11 10,10 0 0 0 11,1 Z"/>
 <path d="M 11,5.5 C 8.5147185,5.5 6.5,7.5147185 6.5,10 l 0,1.566406 C 5.618007,11.794135 5.00132,12.589083 5,13.5 c 0,1.10457 0.8954305,2 2,2 0.351306,-8e-4 0.6962095,-0.09408 1,-0.270508 L 8,15.5 l 1,0 0,-2 0,-2 -1,0 0,0.270508 C 7.843379,11.679842 7.6751775,11.610853 7.5,11.565429 L 7.5,10 c 0,-1.9329965 1.567004,-3.5 3.5,-3.5 1.932997,0 3.5,1.5670035 3.5,3.5 l 0,1.566406 C 13.618007,11.794135 13.00132,12.589083 13,13.5 c 0,1.10457 0.895431,2 2,2 1.104569,0 2,-0.89543 2,-2 -9e-4,-0.911281 -0.617656,-1.70675 -1.5,-1.93457 L 15.5,10 C 15.5,7.5147185 13.485281,5.5 11,5.5 Z m -4,7 c 0.5522845,0 1,0.447715 1,1 0,0.552285 -0.4477155,1 -1,1 -0.5522845,0 -1,-0.447715 -1,-1 0,-0.552285 0.4477155,-1 1,-1 z m 8,0 c 0.552284,0 1,0.447715 1,1 0,0.552285 -0.447716,1 -1,1 -0.552285,0 -1,-0.447715 -1,-1 0,-0.552285 0.447715,-1 1,-1 z" style="opacity:0.2"/>
 <path style="fill:#2993e4" d="M 11,5 C 8.5147185,5 6.5,7.0147185 6.5,9.5 l 0,1.566406 C 5.618007,11.294135 5.00132,12.089083 5,13 c 0,1.10457 0.8954305,2 2,2 0.351306,-8e-4 0.6962095,-0.09408 1,-0.270508 L 8,15 9,15 9,13 9,11 8,11 8,11.270508 C 7.843379,11.179842 7.6751775,11.110853 7.5,11.065429 L 7.5,9.5 C 7.5,7.5670035 9.067004,6 11,6 c 1.932997,0 3.5,1.5670035 3.5,3.5 l 0,1.566406 C 13.618007,11.294135 13.00132,12.089083 13,13 c 0,1.10457 0.895431,2 2,2 1.104569,0 2,-0.89543 2,-2 -9e-4,-0.911281 -0.617656,-1.70675 -1.5,-1.93457 L 15.5,9.5 C 15.5,7.0147185 13.485281,5 11,5 Z m -4,7 c 0.5522845,0 1,0.447715 1,1 0,0.552285 -0.4477155,1 -1,1 -0.5522845,0 -1,-0.447715 -1,-1 0,-0.552285 0.4477155,-1 1,-1 z m 8,0 c 0.552284,0 1,0.447715 1,1 0,0.552285 -0.447716,1 -1,1 -0.552285,0 -1,-0.447715 -1,-1 0,-0.552285 0.447715,-1 1,-1 z"/>
</svg>
